images/r.svg

<svg width="67" height="94" viewBox="0 0 67 94" fill="none" xmlns="http://www.w3.org/2000/svg">
<circle cx="37" cy="31" r="30" fill="#26A37A"/>
<path d="M4.33594 17.125H26.7188C31.0938 17.125 34.8958 17.776 38.125 19.0781C41.3542 20.3802 43.8411 22.3073 45.5859 24.8594C47.3568 27.4115 48.2422 30.5625 48.2422 34.3125C48.2422 37.5677 47.7344 40.2891 46.7188 42.4766C45.7031 44.6641 44.2839 46.474 42.4609 47.9062C40.6641 49.3125 38.5677 50.4714 36.1719 51.3828L31.6797 53.9219H12.8906L12.8125 43.3359H26.7188C28.4635 43.3359 29.9089 43.0234 31.0547 42.3984C32.2005 41.7734 33.0599 40.888 33.6328 39.7422C34.2318 38.5703 34.5312 37.1771 34.5312 35.5625C34.5312 33.9219 34.2318 32.5156 33.6328 31.3438C33.0339 30.1719 32.1484 29.2734 30.9766 28.6484C29.8307 28.0234 28.4115 27.7109 26.7188 27.7109H18.0469V74H4.33594V17.125ZM35.4688 74L22.8906 48.8438L37.4219 48.7656L50.1562 73.4141V74H35.4688Z" fill="#EAEAEA"/>
</svg>

<svg width="67" height="94" fill="none" xmlns="http://www.w3.org/2000/svg"><circle cx="37" cy="31" r="30" fill="#26A37A"/><path d="M4.336 17.125h22.383c4.375 0 8.177.651 11.406 1.953 3.23 1.302 5.716 3.23 7.46 5.781 1.772 2.552 2.657 5.703 2.657 9.453 0 3.256-.508 5.977-1.523 8.165-1.016 2.187-2.435 3.997-4.258 5.43-1.797 1.406-3.893 2.564-6.29 3.476l-4.491 2.539H12.89l-.078-10.586H26.72c1.744 0 3.19-.313 4.336-.938a6.047 6.047 0 002.578-2.656c.599-1.172.898-2.565.898-4.18 0-1.64-.3-3.046-.898-4.218a6.176 6.176 0 00-2.656-2.696c-1.146-.625-2.566-.937-4.258-.937h-8.672V74H4.336V17.125zM35.469 74L22.89 48.844l14.53-.078 12.735 24.648V74H35.47z" fill="#EAEAEA"/></svg>
